;generated by ffslicer 1.30.3 04/21/23 17:58:32
;right_extruder_material: PLA
;layer_height: 0.2
;perimeter_shells: 2
;top_solid_layers: 4
;bottom_solid_layers: 3
;fill_density: 15%
;fill_pattern: hexagon
;base_print_speed: 100
;travel_speed: 120
;right_extruder_temperature: 200
;left_extruder_temperature: 0
;platform_temperature: 60
;right_extruder_temperature_raft0: 0
;left_extruder_temperature_raft0: 0
;right_extruder_temperature_reset: 
;left_extruder_temperature_reset: 
;start gcode
M140 S60 T0 ;Set temp of heated bed 0 to 60°C
M104 S200 T0 ;Set temp of nozzle to 200°C
M104 S0 T1 ;Set target temperature of the second extruderto 0°C turning off the heating element for that extruder
G90 ;Set to absolute positioning
G28 ;Home axes
G1 Z50.000 F420 ;Move print head 50mm above bed with feed rate of 420mm/minute
G161 X Y F3300 ;set home offset for X and Y axes
M190 S60 T0 ;Wait for bed 0 to reach target temp
M109 S200 T0 ;Wait for nozzle 0 to reach target temp
M109 S0 T1 ;waits for nozzle 1 to reach target temp (0)
G92 E.0000 ;Reset E axis (extruser axis)
;layer_count: 100
M108 T0
G1 X116.00 Y92.00 F7200
;preExtrude:0.20
;preExtruder0
M106 S255
G1 Z.200 F420
G1 X116.00 Y92.00 F7200
G1 X128.00 Y92.00 E1.5965 F1200
G1 X128.00 Y128.00 E6.3859
G1 X92.00 Y128.00 E11.1754
G1 X92.00 Y92.00 E15.9649
;raft
;layer:0.30
;shell
G1 E10.9649 F2400
G1 Z.300 F420
G1 X100.60 Y100.60 F3000
G1 E15.9649 F2400
G1 X100.60 Y100.60 F3000
G1 X110.60 Y100.60 E16.4638 F1200
G1 X119.40 Y100.60 E16.9028
G1 X119.40 Y101.80 E16.9627
G1 X119.40 Y111.80 E17.4616
G1 X119.40 Y119.40 E17.8407
G1 X117.00 Y119.40 E17.9605
G1 X107.00 Y119.40 E18.4594
G1 X100.60 Y119.40 E18.7787
G1 X100.60 Y100.60 E19.7166
G1 X100.20 Y100.20 F3000
G1 X119.80 Y100.20 E20.6945 F1200
G1 X119.80 Y119.80 E21.6723
G1 X100.20 Y119.80 E22.6502
G1 X100.20 Y100.20 E23.6280
;infill
G1 E18.6280 F2400
G1 X118.73 Y100.88 F3000
G1 E23.6280 F2400
G1 X118.73 Y100.88 F3000
G1 X119.12 Y101.27 E23.6555 F1200
G1 X119.12 Y101.84 E23.6840
G1 X118.16 Y100.88 E23.7517
G1 X117.59 Y100.88 E23.7801
G1 X119.12 Y102.41 E23.8881
G1 X119.12 Y102.99 E23.9170
G1 X117.01 Y100.88 E24.0659
G1 X116.44 Y100.88 E24.0943
G1 X119.12 Y103.56 E24.2834
G1 X119.12 Y104.13 E24.3118
G1 X115.87 Y100.88 E24.5411
G1 X115.29 Y100.88 E24.5701
G1 X119.12 Y104.70 E24.8400
G1 X119.12 Y105.28 E24.8689
G1 X114.72 Y100.88 E25.1793
G1 X114.15 Y100.88 E25.2078
G1 X119.12 Y105.85 E25.5584
G1 X119.12 Y106.42 E25.5869
G1 X113.58 Y100.88 E25.9778
G1 X113.00 Y100.88 E26.0067
G1 X119.12 Y107.00 E26.4385
G1 X119.12 Y107.57 E26.4669
G1 X112.43 Y100.88 E26.9389
G1 X111.86 Y100.88 E26.9674
G1 X119.12 Y108.14 E27.4796
G1 X119.12 Y108.71 E27.5080
G1 X111.29 Y100.88 E28.0605
G1 X110.71 Y100.88 E28.0894
G1 X119.12 Y109.29 E28.6828
G1 X119.12 Y109.86 E28.7112
G1 X110.14 Y100.88 E29.3448
G1 X109.57 Y100.88 E29.3733
G1 X119.12 Y110.43 E30.0471
G1 X119.12 Y111.00 E30.0755
G1 X108.99 Y100.88 E30.7899
G1 X108.42 Y100.88 E30.8183
G1 X119.12 Y111.58 E31.5733
G1 X119.12 Y112.15 E31.6017
G1 X107.85 Y100.88 E32.3969
G1 X107.28 Y100.88 E32.4253
G1 X119.12 Y112.72 E33.2607
G1 X119.12 Y113.30 E33.2896
G1 X106.70 Y100.88 E34.1659
G1 X106.13 Y100.88 E34.1943
G1 X119.12 Y113.87 E35.1109
G1 X119.12 Y114.44 E35.1393
G1 X105.56 Y100.88 E36.0960
G1 X104.98 Y100.88 E36.1250
G1 X119.12 Y115.01 E37.1223
G1 X119.12 Y115.59 E37.1512
G1 X104.41 Y100.88 E38.1891
G1 X103.84 Y100.88 E38.2175
G1 X119.12 Y116.16 E39.2956
G1 X119.12 Y116.73 E39.3240
G1 X103.27 Y100.88 E40.4423
G1 X102.69 Y100.88 E40.4713
G1 X119.12 Y117.30 E41.6302
G1 X119.12 Y117.88 E41.6591
G1 X102.12 Y100.88 E42.8585
G1 X101.55 Y100.88 E42.8870
G1 X119.12 Y118.45 E44.1266
G1 X119.12 Y119.02 E44.1551
G1 X100.98 Y100.88 E45.4349
G1 X100.88 Y100.88 E45.4399
G1 X100.88 Y101.36 E45.4639
G1 X118.64 Y119.12 E46.7169
G1 X118.07 Y119.12 E46.7454
G1 X100.88 Y101.93 E47.9582
G1 X100.88 Y102.50 E47.9867
G1 X117.50 Y119.12 E49.1593
G1 X116.92 Y119.12 E49.1882
G1 X100.88 Y103.07 E50.3203
G1 X100.88 Y103.65 E50.3492
G1 X116.35 Y119.12 E51.4407
G1 X115.78 Y119.12 E51.4692
G1 X100.88 Y104.22 E52.5204
G1 X100.88 Y104.79 E52.5489
G1 X115.21 Y119.12 E53.5599
G1 X114.63 Y119.12 E53.5889
G1 X100.88 Y105.37 E54.5590
G1 X100.88 Y105.94 E54.5874
G1 X114.06 Y119.12 E55.5174
G1 X113.49 Y119.12 E55.5458
G1 X100.88 Y106.51 E56.4355
G1 X100.88 Y107.08 E56.4639
G1 X112.92 Y119.12 E57.3134
G1 X112.34 Y119.12 E57.3424
G1 X100.88 Y107.66 E58.1509
G1 X100.88 Y108.23 E58.1794
G1 X111.77 Y119.12 E58.9477
G1 X111.20 Y119.12 E58.9762
G1 X100.88 Y108.80 E59.7043
G1 X100.88 Y109.37 E59.7327
G1 X110.62 Y119.12 E60.4203
G1 X110.05 Y119.12 E60.4487
G1 X100.88 Y109.95 E61.0957
G1 X100.88 Y110.52 E61.1242
G1 X109.48 Y119.12 E61.7309
G1 X108.91 Y119.12 E61.7594
G1 X100.88 Y111.09 E62.3259
G1 X100.88 Y111.67 E62.3549
G1 X108.33 Y119.12 E62.8805
G1 X107.76 Y119.12 E62.9089
G1 X100.88 Y112.24 E63.3944
G1 X100.88 Y112.81 E63.4228
G1 X107.19 Y119.12 E63.8680
G1 X106.61 Y119.12 E63.8969
G1 X100.88 Y113.38 E64.3016
G1 X100.88 Y113.96 E64.3305
G1 X106.04 Y119.12 E64.6946
G1 X105.47 Y119.12 E64.7230
G1 X100.88 Y114.53 E65.0469
G1 X100.88 Y115.10 E65.0753
G1 X104.90 Y119.12 E65.3589
G1 X104.32 Y119.12 E65.3879
G1 X100.88 Y115.67 E65.6309
G1 X100.88 Y116.25 E65.6599
G1 X103.75 Y119.12 E65.8624
G1 X103.18 Y119.12 E65.8908
G1 X100.88 Y116.82 E66.0531
G1 X100.88 Y117.39 E66.0815
G1 X102.61 Y119.12 E66.2036
G1 X102.03 Y119.12 E66.2325
G1 X100.88 Y117.97 E66.3137
G1 X100.88 Y118.54 E66.3421
G1 X101.46 Y119.12 E66.3830
G1 X100.88 Y119.11 E66.4120
;percent
;layer:0.20
;shell
G1 E61.4120 F2400
G1 Z.500 F420
G1 X100.60 Y100.60 F7200
G1 E66.4120 F2400
G1 X100.60 Y100.60 F7200
G1 X110.60 Y100.60 E66.7446 F4800
G1 X119.40 Y100.60 E67.0372 F5040
G1 X119.40 Y101.80 E67.0772
G1 X119.40 Y111.80 E67.4098 F5280
G1 X119.40 Y119.40 E67.6625 F5520
G1 X117.00 Y119.40 E67.7424
G1 X107.00 Y119.40 E68.0750 F5760
G1 X100.60 Y119.40 E68.2878 F6000
G1 X100.60 Y100.60 E68.9131
G1 X100.20 Y100.20 F7200
G1 X119.80 Y100.20 E69.5650 F3000
G1 X119.80 Y119.80 E70.2169
G1 X100.20 Y119.80 E70.8688
G1 X100.20 Y100.20 E71.5207
;infill
G1 X100.88 Y101.27 F7200
G1 X101.27 Y100.88 E71.5391 F4200
G1 X101.84 Y100.88 E71.5580
G1 X100.88 Y101.84 E71.6032
G1 X100.88 Y102.41 E71.6221
G1 X102.41 Y100.88 E71.6941
G1 X102.99 Y100.88 E71.7134
G1 X100.88 Y102.99 E71.8126
G1 X100.88 Y103.56 E71.8316
G1 X103.56 Y100.88 E71.9577
G1 X104.13 Y100.88 E71.9766
G1 X100.88 Y104.13 E72.1295
G1 X100.88 Y104.71 E72.1488
G1 X104.71 Y100.88 E72.3289
G1 X105.28 Y100.88 E72.3479
G1 X100.88 Y105.28 E72.5549
G1 X100.88 Y105.85 E72.5738
G1 X105.85 Y100.88 E72.8076
G1 X106.42 Y100.88 E72.8266
G1 X100.88 Y106.42 E73.0871
G1 X100.88 Y107.00 E73.1064
G1 X107.00 Y100.88 E73.3943
G1 X107.57 Y100.88 E73.4133
G1 X100.88 Y107.57 E73.7279
G1 X100.88 Y108.14 E73.7469
G1 X108.14 Y100.88 E74.0884
G1 X108.71 Y100.88 E74.1073
G1 X100.88 Y108.71 E74.4756
G1 X100.88 Y109.29 E74.4949
G1 X109.29 Y100.88 E74.8905
G1 X109.86 Y100.88 E74.9095
G1 X100.88 Y109.86 E75.3319
G1 X100.88 Y110.43 E75.3508
G1 X110.43 Y100.88 E75.8000
G1 X111.01 Y100.88 E75.8193
G1 X100.88 Y111.01 E76.2958
G1 X100.88 Y111.58 E76.3148
G1 X111.58 Y100.88 E76.8181
G1 X112.15 Y100.88 E76.8370
G1 X100.88 Y112.15 E77.3671
G1 X100.88 Y112.72 E77.3861
G1 X112.72 Y100.88 E77.9430
G1 X113.30 Y100.88 E77.9623
G1 X100.88 Y113.30 E78.5465
G1 X100.88 Y113.87 E78.5654
G1 X113.87 Y100.88 E79.1765
G1 X114.44 Y100.88 E79.1954
G1 X100.88 Y114.44 E79.8332
G1 X100.88 Y115.02 E79.8525
G1 X115.02 Y100.88 E80.5176
G1 X115.59 Y100.88 E80.5366
G1 X100.88 Y115.59 E81.2285
G1 X100.88 Y116.16 E81.2475
G1 X116.16 Y100.88 E81.9662
G1 X116.73 Y100.88 E81.9851
G1 X100.88 Y116.73 E82.7307
G1 X100.88 Y117.31 E82.7500
G1 X117.31 Y100.88 E83.5228
G1 X117.88 Y100.88 E83.5418
G1 X100.88 Y117.88 E84.3414
G1 X100.88 Y118.45 E84.3603
G1 X118.45 Y100.88 E85.1868
G1 X119.02 Y100.88 E85.2057
G1 X100.88 Y119.02 E86.0590
G1 X100.88 Y119.12 E86.0623
G1 X101.36 Y119.12 E86.0783
G1 X119.12 Y101.36 E86.9137
G1 X119.12 Y101.93 E86.9326
G1 X101.93 Y119.12 E87.7412
G1 X102.50 Y119.12 E87.7602
G1 X119.12 Y102.50 E88.5419
G1 X119.12 Y103.08 E88.5612
G1 X103.08 Y119.12 E89.3157
G1 X103.65 Y119.12 E89.3346
G1 X119.12 Y103.65 E90.0623
G1 X119.12 Y104.22 E90.0812
G1 X104.22 Y119.12 E90.7821
G1 X104.79 Y119.12 E90.8011
G1 X119.12 Y104.79 E91.4751
G1 X119.12 Y105.37 E91.4944
G1 X105.37 Y119.12 E92.1411
G1 X105.94 Y119.12 E92.1601
G1 X119.12 Y105.94 E92.7800
G1 X119.12 Y106.51 E92.7990
G1 X106.51 Y119.12 E93.3921
G1 X107.09 Y119.12 E93.4114
G1 X119.12 Y107.09 E93.9773
G1 X119.12 Y107.66 E93.9962
G1 X107.66 Y119.12 E94.5353
G1 X108.23 Y119.12 E94.5543
G1 X119.12 Y108.23 E95.0665
G1 X119.12 Y108.80 E95.0854
G1 X108.80 Y119.12 E95.5709
G1 X109.38 Y119.12 E95.5902
G1 X119.12 Y109.38 E96.0483
G1 X119.12 Y109.95 E96.0673
G1 X109.95 Y119.12 E96.4986
G1 X110.52 Y119.12 E96.5176
G1 X119.12 Y110.52 E96.9221
G1 X119.12 Y111.09 E96.9410
G1 X111.09 Y119.12 E97.3187
G1 X111.67 Y119.12 E97.3380
G1 X119.12 Y111.67 E97.6884
G1 X119.12 Y112.24 E97.7074
G1 X112.24 Y119.12 E98.0310
G1 X112.81 Y119.12 E98.0500
G1 X119.12 Y112.81 E98.3468
G1 X119.12 Y113.39 E98.3661
G1 X113.39 Y119.12 E98.6356
G1 X113.96 Y119.12 E98.6546
G1 X119.12 Y113.96 E98.8973
G1 X119.12 Y114.53 E98.9162
G1 X114.53 Y119.12 E99.1321
G1 X115.10 Y119.12 E99.1511
G1 X119.12 Y115.10 E99.3402
G1 X119.12 Y115.68 E99.3595
G1 X115.68 Y119.12 E99.5213
G1 X116.25 Y119.12 E99.5402
G1 X119.12 Y116.25 E99.6752
G1 X119.12 Y116.82 E99.6942
G1 X116.82 Y119.12 E99.8024
G1 X117.40 Y119.12 E99.8217
G1 X119.12 Y117.40 E99.9026
G1 X119.12 Y117.97 E99.9215
G1 X117.97 Y119.12 E99.9756
G1 X118.54 Y119.12 E99.9946
G1 X119.12 Y118.54 E100.0219
G1 X119.11 Y119.12 E100.0412
;percent
;layer:0.20
;shell
G1 E95.0412 F2400
G1 Z.700 F420
G1 X100.60 Y100.60 F7200
G1 E100.0412 F2400
G1 X100.60 Y100.60 F7200
G1 X110.60 Y100.60 E100.3738 F4800
G1 X119.40 Y100.60 E100.6664 F5040
G1 X119.40 Y101.80 E100.7064
G1 X119.40 Y111.80 E101.0390 F5280
G1 X119.40 Y119.40 E101.2917 F5520
G1 X117.00 Y119.40 E101.3716
G1 X107.00 Y119.40 E101.7042 F5760
G1 X100.60 Y119.40 E101.9170 F6000
G1 X100.60 Y100.60 E102.5423
G1 X100.20 Y100.20 F7200
G1 X119.80 Y100.20 E103.1942 F3000
G1 X119.80 Y119.80 E103.8461
G1 X100.20 Y119.80 E104.4980
G1 X100.20 Y100.20 E105.1499
;infill
G1 E100.1499 F2400
G1 X118.73 Y100.88 F7200
G1 E105.1499 F2400
G1 X118.73 Y100.88 F7200
G1 X119.12 Y101.27 E105.1683 F4200
G1 X119.12 Y101.84 E105.1872
G1 X118.16 Y100.88 E105.2324
G1 X117.59 Y100.88 E105.2513
G1 X119.12 Y102.41 E105.3233
G1 X119.12 Y102.99 E105.3426
G1 X117.01 Y100.88 E105.4418
G1 X116.44 Y100.88 E105.4608
G1 X119.12 Y103.56 E105.5869
G1 X119.12 Y104.13 E105.6058
G1 X115.87 Y100.88 E105.7587
G1 X115.29 Y100.88 E105.7780
G1 X119.12 Y104.70 E105.9579
G1 X119.12 Y105.28 E105.9772
G1 X114.72 Y100.88 E106.1842
G1 X114.15 Y100.88 E106.2031
G1 X119.12 Y105.85 E106.4369
G1 X119.12 Y106.42 E106.4558
G1 X113.58 Y100.88 E106.7164
G1 X113.00 Y100.88 E106.7357
G1 X119.12 Y107.00 E107.0236
G1 X119.12 Y107.57 E107.0426
G1 X112.43 Y100.88 E107.3572
G1 X111.86 Y100.88 E107.3762
G1 X119.12 Y108.14 E107.7177
G1 X119.12 Y108.71 E107.7366
G1 X111.29 Y100.88 E108.1049
G1 X110.71 Y100.88 E108.1242
G1 X119.12 Y109.29 E108.5198
G1 X119.12 Y109.86 E108.5388
G1 X110.14 Y100.88 E108.9612
G1 X109.57 Y100.88 E108.9801
G1 X119.12 Y110.43 E109.4293
G1 X119.12 Y111.00 E109.4483
G1 X108.99 Y100.88 E109.9245
G1 X108.42 Y100.88 E109.9435
G1 X119.12 Y111.58 E110.4468
G1 X119.12 Y112.15 E110.4658
G1 X107.85 Y100.88 E110.9959
G1 X107.28 Y100.88 E111.0148
G1 X119.12 Y112.72 E111.5717
G1 X119.12 Y113.30 E111.5910
G1 X106.70 Y100.88 E112.1752
G1 X106.13 Y100.88 E112.1942
G1 X119.12 Y113.87 E112.8052
G1 X119.12 Y114.44 E112.8241
G1 X105.56 Y100.88 E113.4620
G1 X104.98 Y100.88 E113.4813
G1 X119.12 Y115.01 E114.1461
G1 X119.12 Y115.59 E114.1654
G1 X104.41 Y100.88 E114.8573
G1 X103.84 Y100.88 E114.8763
G1 X119.12 Y116.16 E115.5950
G1 X119.12 Y116.73 E115.6140
G1 X103.27 Y100.88 E116.3595
G1 X102.69 Y100.88 E116.3788
G1 X119.12 Y117.30 E117.1514
G1 X119.12 Y117.88 E117.1707
G1 X102.12 Y100.88 E117.9703
G1 X101.55 Y100.88 E117.9893
G1 X119.12 Y118.45 E118.8157
G1 X119.12 Y119.02 E118.8347
G1 X100.98 Y100.88 E119.6879
G1 X100.88 Y100.88 E119.6912
G1 X100.88 Y101.36 E119.7072
G1 X118.64 Y119.12 E120.5426
G1 X118.07 Y119.12 E120.5615
G1 X100.88 Y101.93 E121.3701
G1 X100.88 Y102.50 E121.3891
G1 X117.50 Y119.12 E122.1708
G1 X116.92 Y119.12 E122.1901
G1 X100.88 Y103.07 E122.9448
G1 X100.88 Y103.65 E122.9641
G1 X116.35 Y119.12 E123.6918
G1 X115.78 Y119.12 E123.7107
G1 X100.88 Y104.22 E124.4116
G1 X100.88 Y104.79 E124.4305
G1 X115.21 Y119.12 E125.1046
G1 X114.63 Y119.12 E125.1239
G1 X100.88 Y105.37 E125.7706
G1 X100.88 Y105.94 E125.7896
G1 X114.06 Y119.12 E126.4095
G1 X113.49 Y119.12 E126.4285
G1 X100.88 Y106.51 E127.0216
G1 X100.88 Y107.08 E127.0406
G1 X112.92 Y119.12 E127.6069
G1 X112.34 Y119.12 E127.6262
G1 X100.88 Y107.66 E128.1652
G1 X100.88 Y108.23 E128.1842
G1 X111.77 Y119.12 E128.6964
G1 X111.20 Y119.12 E128.7154
G1 X100.88 Y108.80 E129.2008
G1 X100.88 Y109.37 E129.2198
G1 X110.62 Y119.12 E129.6782
G1 X110.05 Y119.12 E129.6971
G1 X100.88 Y109.95 E130.1285
G1 X100.88 Y110.52 E130.1474
G1 X109.48 Y119.12 E130.5519
G1 X108.91 Y119.12 E130.5709
G1 X100.88 Y111.09 E130.9486
G1 X100.88 Y111.67 E130.9679
G1 X108.33 Y119.12 E131.3183
G1 X107.76 Y119.12 E131.3373
G1 X100.88 Y112.24 E131.6609
G1 X100.88 Y112.81 E131.6798
G1 X107.19 Y119.12 E131.9766
G1 X106.61 Y119.12 E131.9959
G1 X100.88 Y113.38 E132.2657
G1 X100.88 Y113.96 E132.2850
G1 X106.04 Y119.12 E132.5277
G1 X105.47 Y119.12 E132.5466
G1 X100.88 Y114.53 E132.7625
G1 X100.88 Y115.10 E132.7815
G1 X104.90 Y119.12 E132.9706
G1 X104.32 Y119.12 E132.9899
G1 X100.88 Y115.67 E133.1519
G1 X100.88 Y116.25 E133.1712
G1 X103.75 Y119.12 E133.3062
G1 X103.18 Y119.12 E133.3252
G1 X100.88 Y116.82 E133.4334
G1 X100.88 Y117.39 E133.4523
G1 X102.61 Y119.12 E133.5337
G1 X102.03 Y119.12 E133.5530
G1 X100.88 Y117.97 E133.6071
G1 X100.88 Y118.54 E133.6260
G1 X101.46 Y119.12 E133.6533
G1 X100.88 Y119.11 E133.6726
;percent
;layer:0.20
;shell
G1 E128.6726 F2400
G1 X100.60 Y100.60 F7200
G1 Z.900 F420
G1 E133.6726 F2400
G1 X100.60 Y100.60 F7200
G1 X110.60 Y100.60 E134.0052 F4800
G1 X119.40 Y100.60 E134.2979 F5040
G1 X119.40 Y101.80 E134.3378
G1 X119.40 Y111.80 E134.6704 F5280
G1 X119.40 Y119.40 E134.9232 F5520
G1 X117.00 Y119.40 E135.0030
G1 X107.00 Y119.40 E135.3356 F5760
G1 X100.60 Y119.40 E135.5484 F6000
G1 X100.60 Y100.60 E136.1737
G1 X100.20 Y100.20 F7200
G1 X119.80 Y100.20 E136.8256 F3000
G1 X119.80 Y119.80 E137.4776
G1 X100.20 Y119.80 E138.1295
G1 X100.20 Y100.20 E138.7814
;percent
;layer:0.20
;shell
G1 Z1.100 F420
G1 X100.60 Y100.60 F7200
G1 X119.40 Y100.60 E139.4067 F6000
G1 X119.40 Y119.40 E140.0320
G1 X100.60 Y119.40 E140.6573
G1 X100.60 Y100.60 E141.2826
G1 X100.20 Y100.20 F7200
G1 X119.80 Y100.20 E141.9345 F3000
G1 X119.80 Y119.80 E142.5864
G1 X100.20 Y119.80 E143.2383
G1 X100.20 Y100.20 E143.8902
;infill
G1 E138.8902 F2400
G1 X103.13 Y100.88 F7200
G1 E143.8902 F2400
;extrude_ratio:2.18
G1 X103.13 Y100.88 F7200
G1 X100.88 Y102.18 E144.0786 F6000
G1 X100.88 Y106.79 E144.4128
G1 X103.19 Y108.12 E144.6061
G1 X103.19 Y111.88 E144.8787
G1 X100.88 Y113.21 E145.0720
G1 X100.88 Y117.82 E145.4062
G1 X103.13 Y119.12 E145.5946
G1 X103.54 Y119.12 E145.6244
G1 X106.53 Y117.40 E145.8745
G1 X106.53 Y113.64 E146.1471
G1 X103.47 Y111.88 E146.4031
G1 X103.47 Y108.12 E146.6757
G1 X106.53 Y106.36 E146.9316
G1 X106.53 Y102.60 E147.2043
G1 X103.54 Y100.88 E147.4544
G1 X109.80 Y100.88 E147.9083
G1 X106.81 Y102.60 E148.1584
G1 X106.81 Y106.36 E148.4310
G1 X109.86 Y108.12 E148.6863
G1 X109.86 Y111.88 E148.9590
G1 X106.81 Y113.64 E149.2143
G1 X106.81 Y117.40 E149.4869
G1 X109.79 Y119.12 E149.7364
G1 X110.21 Y119.12 E149.7669
G1 X113.19 Y117.40 E150.0163
G1 X113.19 Y113.64 E150.2890
G1 X110.14 Y111.88 E150.5443
G1 X110.14 Y108.12 E150.8169
G1 X113.19 Y106.36 E151.0722
G1 X113.19 Y102.60 E151.3449
G1 X110.21 Y100.88 E151.5944
G1 X116.46 Y100.88 E152.0475
G1 X113.47 Y102.60 E152.2976
